build/service/DragSolid.svg

<svg xmlns="http://www.w3.org/2000/svg" fill="none" viewBox="0 0 24 24" focusable="false"><path d="M0 0H24V24H0z"/><path fill="#74767B" fill-rule="evenodd" d="M3 12C3 7.02944 7.02944 3 12 3C16.9706 3 21 7.02944 21 12C21 16.9706 16.9706 21 12 21C7.02944 21 3 16.9706 3 12ZM10.7 7.50001C10.7 6.78204 10.118 6.20001 9.40001 6.20001C8.68204 6.20001 8.10001 6.78204 8.10001 7.50001C8.10001 8.21798 8.68204 8.80001 9.40001 8.80001C10.118 8.80001 10.7 8.21798 10.7 7.50001ZM10.7 12C10.7 11.282 10.118 10.7 9.40001 10.7C8.68204 10.7 8.10001 11.282 8.10001 12C8.10001 12.718 8.68204 13.3 9.40001 13.3C10.118 13.3 10.7 12.718 10.7 12ZM9.40001 15.2C10.118 15.2 10.7 15.782 10.7 16.5C10.7 17.218 10.118 17.8 9.40001 17.8C8.68204 17.8 8.10001 17.218 8.10001 16.5C8.10001 15.782 8.68204 15.2 9.40001 15.2ZM15.9 12C15.9 11.282 15.318 10.7 14.6 10.7C13.882 10.7 13.3 11.282 13.3 12C13.3 12.718 13.882 13.3 14.6 13.3C15.318 13.3 15.9 12.718 15.9 12ZM14.6 6.20001C15.318 6.20001 15.9 6.78204 15.9 7.50001C15.9 8.21798 15.318 8.80001 14.6 8.80001C13.882 8.80001 13.3 8.21798 13.3 7.50001C13.3 6.78204 13.882 6.20001 14.6 6.20001ZM15.9 16.5C15.9 15.782 15.318 15.2 14.6 15.2C13.882 15.2 13.3 15.782 13.3 16.5C13.3 17.218 13.882 17.8 14.6 17.8C15.318 17.8 15.9 17.218 15.9 16.5Z"/></svg>

<svg xmlns="http://www.w3.org/2000/svg" fill="none" viewBox="0 0 24 24" focusable="false"><path fill="#74767B" fill-rule="evenodd" d="M3 12c0-4.98 4.02-9 9-9 4.97 0 9 4.02 9 9a9 9 0 0 1-9 9c-4.98 0-9-4.03-9-9m7.7-4.5c0-.72-.59-1.3-1.31-1.3a1.295 1.295 0 0 0 0 2.59c.72 0 1.31-.58 1.31-1.29m0 4.5c0-.72-.59-1.3-1.31-1.3-.71 0-1.29.58-1.29 1.3 0 .71.58 1.3 1.29 1.3.72 0 1.31-.59 1.31-1.3m-1.31 3.2c.72 0 1.31.58 1.31 1.3 0 .71-.59 1.29-1.31 1.29a1.295 1.295 0 0 1 0-2.59m6.5-3.2c0-.72-.58-1.3-1.29-1.3-.72 0-1.31.58-1.31 1.3 0 .71.59 1.3 1.31 1.3.71 0 1.29-.59 1.29-1.3M14.6 6.2a1.295 1.295 0 0 1 0 2.59c-.72 0-1.31-.58-1.31-1.29 0-.72.59-1.3 1.31-1.3m1.29 10.3c0-.72-.58-1.3-1.29-1.3-.72 0-1.31.58-1.31 1.3 0 .71.59 1.29 1.31 1.29.71 0 1.29-.58 1.29-1.29"/></svg>
